!!!COM:	Pierre de la Rue
**kern	**kern
*part2	*part1
*staff2	*staff1
*clefGv2	*clefG2
*k[]	*k[]
*M2/1	*M2/1
=1-	=1-
0r	1g
.	1g
=2	=2
0r	1a
.	[1b
=3	=3
1d	1b]
1d	1a
=4	=4
1e	1g
[1f	[1a
=5	=5
1f]	2a]
.	2a
1e	[1cc
=6	=6
2e	2cc]
2e	2b
[1g	1g
=7	=7
2g]	0b
2f	.
[1d	.
=8	=8
1d]	0a
[1f	.
=9	=9
1f]	2r
.	1dd
2f	.
[2e	[2cc
=10	=10
1e]	2cc]
.	1b
[1d	.
.	2b
=11	=11
2d]	2.a
1c	.
.	4b
.	2cc
2e	[2b
=12	=12
2d	4b]
.	4cc
2.f	2dd
.	2cc
4e	.
4d	4b
4c	4a
=13	=13
4d	4b
4c	4a
4B	1a
4A	.
1B	.
.	2g
=14	=14
[0A	0a
=15	=15
0A]	1r
.	1a
=16	=16
1r	1a
1d	1a
=17	=17
1d	1b
1d	1b
=18	=18
1e	[0g
1e	.
=19	=19
1c	0g_
2r	.
[2c	.
=20	=20
2c]	0g_
2B	.
2c	.
[2e	.
=21	=21
2e]	0g]
4d	.
4c	.
2B	.
[2c	.
=22	=22
4c]	2r
4G	.
2B	1g
1A	.
.	2f
=23	=23
0G	2g
.	1b
.	4a
.	4g
=24	=24
2r	2f
2G	1g
1A	.
.	2f
=25	=25
1B	1g
[1c	2r
.	2g
=26	=26
2c]	1a
4B	.
4A	.
2G	1b
2B	.
=27	=27
1A	1cc
1G	1b
=28	=28
2r	1g
1g	.
.	[1dd
2f	.
=29	=29
2g	1dd]
1G	.
.	[1dd
2F	.
=30	=30
2G	2dd]
1g	2b
.	1cc
2f	.
=31	=31
2g	2b
2G	1dd
1A	.
.	2cc
=32	=32
2G	2b
1d	2.a
.	4g
2c	2e
=33	=33
1d	2f
.	4d
.	4e
2r	4f
.	4g
2d	[2a
=34	=34
2c	4a]
.	4b
2A	2cc
1c	4a
.	4b
.	[2cc
=35	=35
4A	4cc]
4B	4b
2c	4a
.	4b
4A	4cc
4B	4b
[2c	4a
.	4g
=36	=36
4c]	2a
4B	.
4A	1g
4G	.
1A	.
.	2f
=37	=37
0G	0g
==	==
*-	*-
